X:53
T:Lyon's Fancey
M:6/8
L:1/8
B:Thompson's Compleat Collection of 200 Favourite Country Dances, vol. 2 (London, 1765)
Z:Transcribed and edited by Flynn Titford-Mock, 2007
Z:abc's:AK/Fiddler's Companion
K:A
A | Ace ecA | def fdB | Ace ecA | GAB BGE | Ace ecA | def fga | gfe Bc^d | e3 E2 :|
|: e | eEe edc | d[B,B][B,B] [B,2B2]c | dBd dcB | c[A,A][A,A] [A,2A2]f |
fFf fga | gfe a2d | cec dBG | A3 [A,2A2] :|

